X: 1
T: Colonel MacLeod
R: reel
Z: 2011 John Chambers <jc:trillian.mit.edu>
S: Handwritten MS from Barbara McOwen
M: C|
L: 1/8
K: A
"A"|: c \
| "A"efec a2cd | "A"efec "Bm"fBBc \
| "A"efec "F#m"a2ed | "E7"ceBd "A"cAA \
"B":| f \
| "A"eaga "D"f2ed | "A"caga "Bm"fBBf |
| "A"eaga "F#m"f2ed | "E7"ceBd "A"cAAf \
||"A"eaga "D"f2ed | "A"caga "Bm"fBBf \
| "A"eaga "D"faea | "E7"caBa "A"cAA |]
"C"|: c \
| "A"eAc2 a2cd | "A"eAc2 "Bm"fBBc \
| "A"eAc2 "F3m"a2ed | "E7"ceBd "A"cAA \
"D":| f \
| "A"efae "D"f2ec | "A"efae "Bm"fBBf |
| "A"efae "F#m"f2ed | "E7"ceBd "A"cAAf \
||"A"efae "D"f2ec | "A"efae "Bm"fBBf \
| "A"eaga "D"faea | "E7"caBa "A"cAA |]
